public/calendar/clear.svg

<?xml version="1.0" encoding="UTF-8" standalone="no"?>
<svg version="1.1" viewBox="0 0 64 64" width="64" height="64" fill="#dddddd" id="clearsvg" xmlns="http://www.w3.org/2000/svg" xmlns:svg="http://www.w3.org/2000/svg">
  <g id="clear">
    <path id="path1" d="m 38.86,0.27 c 1.37,4.14 2.61,8.31 4.12,12.4 -4.37,-2.29 -8.16,-3.04 -13.07,-2.91 2.44,-2.5 4.78,-5.1 7.18,-7.65 0.59,-0.62 1.18,-1.23 1.77,-1.84 z" />
    <path id="path2" d="m 14.67,4.47 c 3.9,1.93 7.76,3.92 11.6,5.96 -4.75,1.54 -7.86,3.59 -11.22,7.27 C 15.02,13.28 14.79,8.88 14.67,4.47 Z" />
    <path id="path3" d="m 25.45,14.54 c 5.08,-1.94 11,-1.48 15.67,1.32 6.27,3.57 9.85,11.03 8.77,18.16 -1.07,8.42 -8.39,15.18 -16.88,15.59 -9,0.6 -17.33,-5.89 -18.91,-14.76 -1.71,-8.49 3.29,-17.27 11.35,-20.31 z" />
    <path id="path4" d="m 45.99,14.77 c 4.31,-0.12 8.62,-0.27 12.94,-0.42 -1.92,3.89 -3.97,7.71 -5.87,11.6 -1.13,-3.29 -2.59,-6.39 -4.98,-8.97 -0.7,-0.74 -1.39,-1.48 -2.09,-2.21 z" />
    <path id="path5" d="m 9.47,21.68 c 1.21,-0.39 2.41,-0.79 3.62,-1.19 -2.31,4.39 -3,8.18 -2.9,13.12 C 7.03,30.49 3.68,27.6 0.54,24.47 3.52,23.56 6.5,22.62 9.47,21.68 Z" />
    <path id="path6" d="m 53.68,29.65 c 3.13,3.02 6.41,5.87 9.46,8.96 -4.16,1.27 -8.29,2.63 -12.43,3.99 2.26,-4.29 3.07,-8.08 2.97,-12.95 z" />
    <path id="path7" d="m 10.75,37.01 c 1.63,4.71 3.65,7.84 7.24,11.29 -4.42,0.13 -8.83,0.32 -13.24,0.39 2.03,-3.88 3.99,-7.8 6,-11.68 z" />
    <path id="path8" d="m 48.63,45.53 c 0.1,4.38 0.3,8.75 0.41,13.12 -3.9,-2.03 -7.83,-4.01 -11.75,-6 4.75,-1.52 7.92,-3.5 11.34,-7.12 z" />
    <path id="path9" d="m 20.73,50.22 c 0.91,0.44 1.82,0.88 2.74,1.31 3.35,1.4 6.8,1.75 10.41,1.69 -3.03,3.18 -5.99,6.41 -9.01,9.59 -1.07,-3.17 -2.09,-6.36 -3.13,-9.55 -0.33,-1.01 -0.67,-2.03 -1.01,-3.04 z" />
  </g>
</svg>

<?xml version="1.0" encoding="UTF-8" standalone="no"?>
<!DOCTYPE svg PUBLIC "-//W3C//DTD SVG 1.1//EN" "http://www.w3.org/Graphics/SVG/1.1/DTD/svg11.dtd">
<svg xmlns="http://www.w3.org/2000/svg" version="1.1" viewBox="0 0 64 63" width="64.0pt" height="63.0pt" fill="#DDD">
  <path d="M 38.86 0.27 C 40.23 4.41 41.47 8.58 42.98 12.67 C 38.61 10.38 34.82 9.63 29.91 9.76 C 32.35 7.26 34.69 4.66 37.09 2.11 C 37.68 1.49 38.27 0.88 38.86 0.27 Z" />
  <path d="M 14.67 4.47 C 18.57 6.40 22.43 8.39 26.27 10.43 C 21.52 11.97 18.41 14.02 15.05 17.70 C 15.02 13.28 14.79 8.88 14.67 4.47 Z" />
  <path d="M 25.45 14.54 C 30.53 12.60 36.45 13.06 41.12 15.86 C 47.39 19.43 50.97 26.89 49.89 34.02 C 48.82 42.44 41.50 49.20 33.01 49.61 C 24.01 50.21 15.68 43.72 14.10 34.85 C 12.39 26.36 17.39 17.58 25.45 14.54 Z" />
  <path d="M 45.99 14.77 C 50.30 14.65 54.61 14.50 58.93 14.35 C 57.01 18.24 54.96 22.06 53.06 25.95 C 51.93 22.66 50.47 19.56 48.08 16.98 C 47.38 16.24 46.69 15.50 45.99 14.77 Z" />
  <path d="M 9.47 21.68 C 10.68 21.29 11.88 20.89 13.09 20.49 C 10.78 24.88 10.09 28.67 10.19 33.61 C 7.03 30.49 3.68 27.60 0.54 24.47 C 3.52 23.56 6.50 22.62 9.47 21.68 Z" />
  <path d="M 53.68 29.65 C 56.81 32.67 60.09 35.52 63.14 38.61 C 58.98 39.88 54.85 41.24 50.71 42.60 C 52.97 38.31 53.78 34.52 53.68 29.65 Z" />
  <path d="M 10.75 37.01 C 12.38 41.72 14.40 44.85 17.99 48.30 C 13.57 48.43 9.16 48.62 4.75 48.69 C 6.78 44.81 8.74 40.89 10.75 37.01 Z" />
  <path d="M 48.63 45.53 C 48.73 49.91 48.93 54.28 49.04 58.65 C 45.14 56.62 41.21 54.64 37.29 52.65 C 42.04 51.13 45.21 49.15 48.63 45.53 Z" />
  <path d="M 20.73 50.22 C 21.64 50.66 22.55 51.10 23.47 51.53 C 26.82 52.93 30.27 53.28 33.88 53.22 C 30.85 56.40 27.89 59.63 24.87 62.81 C 23.80 59.64 22.78 56.45 21.74 53.26 C 21.41 52.25 21.07 51.23 20.73 50.22 Z" />
</svg>
